assets/images/line-x.svg

<svg height="4" viewBox="0 0 120 4" width="120" xmlns="http://www.w3.org/2000/svg"><path d="m16.6467743 2.9571992c-.3301701-.00365117-.6619051-.05163798-.9884241-.10744874-.3807649-.06519948-1.0016528-.14998509-1.0016528-.68261245s1.596902-.35774493 2.301582-.42377449c1.048716-.09826623 2.1334624-.6110781 3.3160319-.61725535.9855966-.00514834 2.1195763-.1313899 3.1052219-.12593649.4918648.00260798.9983344.0876281 1.467249.23419652.3035688.09493044.5377653.37920017.5461108.75787873.007824.38128655-.2258509.64260605-.5247253.7740482-.2936585.12883417-.6415629.17942896-.9665171.18516652-.7100052.01125582-1.2341765.00124184-1.944568 0-.4148391-.00072519-1.0158656.00879582-1.4306817.00814294-.1257077-.00019785-.2514118-.00031901-.3771106-.00031901-1.0377791-.19299045-2.3351845.01095352-3.502516-.00208638zm18.7199697.03525988c-1.0817897 0-2.1635794.0119967-3.2453692-.00625915-.4125823-.00625915-.8262078-.06676427-1.2346173-.13405013-.4104959-.06728586-.7490116-.4365757-.8121247-.82985895-.0688506-.42927336.4058016-.93887248.952434-.94617482.8134408-.01052785 1.9114639.007819 2.7250084 0 1.7660758-.0169738 3.2478656-.05544953 5.0144304-.0625915.5028184-.00208638 1.0160686.08241214 1.4004848.43188134.1601299.14552524.2806185.43657571.2613195.64730042-.0187775.20915992-.1919473.48143294-.3765922.58053615-.277489.1491764-.6222638.23106695-.9404373.23784769-1.2476572.02607979-2.495836.01043192-3.7445364.01043192zm16.4510801-1.08048224c-2.3350041 0-1.502874.58802316-4.2233614.58802316s-2.2762442-1.006343-2.3784769-1.33286199c-.081369-.25714674.190904-.68329052.4428348-.81890544.6102671-.32808377 1.2753018-.35729314 1.9356421-.34425324 1.4077871.02816617 2.8155742.09858161 4.2233614.14500364.8282941.02764458.8010241.36391757 1.7183239.59438055.9172997.23046298 2.0642355.34934277 1.9814643.82540327-.0349349.20092861-1.0641646.34112367-1.458491.35364197-1.3243318.04172767-2.65075.01564787-3.9761249.01564787zm-46.81009541 1.02696651c-1.16680985 0-2.3341413.00938872-3.50095115-.00625915-.32860537-.00417277-.65825393-.06989384-.98372972-.12726938-.26497068-.04746522-.55289157-.48612731-.52055263-.75840033.04537884-.38285133.30774153-.5867953.63947648-.66190509.40423676-.09180087.8230782-.14656843 1.23774688-.1622163 1.16263708-.04433565 2.32683896-.06467789 3.49051923-.08606331.99676962-.01773426 1.99406083-.02660139 2.99083044-.03390373.50229678-.00260798 1.01815505.00052159 1.43960447.30669834.18047215.13092055.30878471.37346261.39067531.59148966.0860633.23054535-.23263178.75840033-.45691798.80586554-.32286781.06832906-.65042999.1507412-.97694897.15543556-.49456621.00701805-1.00849869-.15602373-1.50316362-.15543556-.75532811.00089812-1.49141136.1627379-2.24658874.1627379zm71.63904561.01825585c-.3301701-.00365117-.6619051-.05163798-.9884241-.10744874-.3807649-.06519948-1.0016528-.14998509-1.0016528-.68261245s1.596902-.35774493 2.301582-.42377449c1.048716-.09826623 2.1334624-.6110781 3.3160319-.61725535.9855966-.00514834 2.1195763-.1313899 3.1052219-.12593649.4918648.00260798.9983344.0876281 1.467249.23419652.3035688.09493044.5377653.37920017.5461108.75787873.007824.38128655-.2258509.64260605-.5247253.7740482-.2936585.12883417-.6415629.17942896-.9665171.18516652-.7100052.01125582-1.2341765.00124184-1.944568 0-.4148391-.00072519-1.0158656.00879582-1.4306817.00814294-.1257077-.00019785-.2514118-.00031901-.3771106-.00031901-1.0377791-.19299045-2.3351845.01095352-3.502516-.00208638zm18.7199697 1.03525988c-1.0817897 0-2.1635794.0119967-3.2453692-.00625915-.4125823-.00625915-.8262078-.06676427-1.2346173-.13405013-.4104959-.06728586-.7490116-.4365757-.8121247-.82985895-.0688506-.42927336 1.4993097-1.43819566 2.046742-1.43819566 2.4318247 0 3.1300142.42942934 4.4449989.49202084 1.7317784.08243032.4335671-.05544953 2.2001319-.0625915.5028184-.00208638 1.0160686.08241214 1.4004844.43188134.16013.14552524.280619.43657571.26132.64730042-.018778.20915992-.191947.48143294-.376592.58053615-.2774893.1491764-.6222641.23106695-.9404376.23784769-1.2476572.02607979-2.495836.01043192-3.7445364.01043192zm14.716252-1.08048224c-1.076573 0-2.153147.00521596-3.229721-.00260798-.328605-.00260797-.663991-.00521595-.98373-.06989384-.345818-.07041543-.551326-.34581802-.653559-.67233701-.081369-.25714674.190904-.68329052.442835-.81890544.610267-.32808377 1.275301-.35729313 1.935642-.34425324 1.407787.02816617 2.815574.09858161 4.223361.14500364.828294.02764458.801024.36391757 1.718324.59438055s2.064235.34934277 1.981464.82540327c-.034935.20092861-1.064164.34112367-1.458491.35364197-1.324331.04172767-2.65075.01564787-3.976125.01564787zm-45.0752673.02696651c-1.1668099 0-2.3341413.00938872-3.5009512-.00625915-.3286053-.00417277-.6582539-.06989384-.9837297-.12726938-.2649707-.04746522-.5528916-.48612731-.5205526-.75840033.0453788-.38285133.3077415-.5867953.6394765-.66190509.4042367-.09180087.8230782-.14656843 1.2377468-.1622163 1.1626371-.04433565 2.326839-.06467789 3.4905193-.08606331.9967696-.01773426 1.9940608-.02660139 2.9908304-.03390373.5022968-.00260798 1.0181551.00052159 1.4396045.30669834.1804721.13092055.3087847.37346261.3906753.59148966.0860633.23054535-.2326318.75840033-.456918.80586554-.3228678.06832906-.65043.1507412-.976949.15543556-.4945662.00701805-1.0084986-.15602373-1.5031636-.15543556-.7553281.00089812-1.4914113.1627379-2.2465887.1627379z" fill="#ced4da" fill-rule="evenodd"/></svg>

<svg xmlns="http://www.w3.org/2000/svg" width="120" height="4" viewBox="0 0 120 4">
  <g fill="none" fill-rule="evenodd">
    <rect width="120" height="4" fill="#212529"/>
    <path fill="#CED4DA" d="M16.6467743 2.9571992C16.3166042 2.95354803 15.9848692 2.90556122 15.6583502 2.84975046 15.2775853 2.78455098 14.6566974 2.69976537 14.6566974 2.16713801 14.6566974 1.63451065 16.2535994 1.80939308 16.9582794 1.74336352 18.0069954 1.64509729 19.0917418 1.13228542 20.2743113 1.12610817 21.2599079 1.12095983 22.3938876.994718265 23.3795332 1.00017168 23.871398 1.00277966 24.3778676 1.08779978 24.8467822 1.2343682 25.150351 1.32929864 25.3845475 1.61356837 25.392893 1.99224693 25.400717 2.37353348 25.1670421 2.63485298 24.8681677 2.76629513 24.5745092 2.8951293 24.2266048 2.94572409 23.9016506 2.95146165 23.1916454 2.96271747 22.6674741 2.95270349 21.9570826 2.95146165 21.5422435 2.95073646 20.941217 2.96025747 20.5264009 2.95960459 20.4006932 2.95940674 20.2749891 2.95928558 20.1492903 2.95928558 19.1115112 2.76629513 17.8141058 2.9702391 16.6467743 2.9571992zM35.366744 2.99245908C34.2849543 2.99245908 33.2031646 3.00445578 32.1213748 2.98619993 31.7087925 2.97994078 31.295167 2.91943566 30.8867575 2.8521498 30.4762616 2.78486394 30.1377459 2.4155741 30.0746328 2.02229085 30.0057822 1.59301749 30.4804344 1.08341837 31.0270668 1.07611603 31.8405076 1.06558818 32.9385307 1.08393503 33.7520752 1.07611603 35.518151 1.05914223 36.9999408 1.0206665 38.7665056 1.01352453 39.269324 1.01143815 39.7825742 1.09593667 40.1669904 1.44540587 40.3271203 1.59093111 40.4476089 1.88198158 40.4283099 2.09270629 40.4095324 2.30186621 40.2363626 2.57413923 40.0517177 2.67324244 39.7742287 2.82241884 39.4294539 2.90430939 39.1112804 2.91109013 37.8636232 2.93716992 36.6154444 2.92152205 35.366744 2.92152205L35.366744 2.99245908zM51.8178241 1.91197684C49.48282 1.91197684 50.3149501 2.5 47.5944627 2.5 44.8739753 2.5 45.3182185 1.493657 45.2159858 1.16713801 45.1346168.909991271 45.4068898.483847485 45.6588206.348232572 46.2690877.0201488005 46.9341224-.0090605655 47.5944627.00397933003 49.0022498.0321455044 50.4100369.10256094 51.8178241.148982968 52.6461182.176627547 52.6188482.512900537 53.536148.743363519 54.4534477.9738265 55.6003835 1.09270629 55.5176123 1.56876679 55.4826774 1.7696954 54.4534477 1.90989046 54.0591213 1.92240876 52.7347895 1.96413643 51.4083713 1.93805663 50.0829964 1.93805663L51.8178241 1.91197684zM5.00772869 2.93894335C3.84091884 2.93894335 2.67358739 2.94833207 1.50677754 2.9326842 1.17817217 2.92851143.848523611 2.86279036.523047819 2.80541482.258077141 2.7579496-.0298437518 2.31928751.00249518906 2.04701449.0478740255 1.66416316.310236724 1.46021919.641971666 1.3851094 1.04620843 1.29330853 1.46504987 1.23854097 1.87971855 1.2228931 3.04235563 1.17855745 4.20655751 1.15821521 5.37023778 1.13682979 6.3670074 1.11909553 7.36429861 1.1102284 8.36106822 1.10292606 8.863365 1.10031808 9.37922327 1.10344765 9.80067269 1.4096244 9.98114484 1.54054495 10.1094574 1.78308701 10.191348 2.00111406 10.2774113 2.23165941 9.95871622 2.75951439 9.73443002 2.8069796 9.41156221 2.87530866 9.08400003 2.9577208 8.75748105 2.96241516 8.26291484 2.96943321 7.74898236 2.80639143 7.25431743 2.8069796 6.49898932 2.80787772 5.76290607 2.9697175 5.00772869 2.9697175L5.00772869 2.93894335zM76.6467743 2.9571992C76.3166042 2.95354803 75.9848692 2.90556122 75.6583502 2.84975046 75.2775853 2.78455098 74.6566974 2.69976537 74.6566974 2.16713801 74.6566974 1.63451065 76.2535994 1.80939308 76.9582794 1.74336352 78.0069954 1.64509729 79.0917418 1.13228542 80.2743113 1.12610817 81.2599079 1.12095983 82.3938876.994718265 83.3795332 1.00017168 83.871398 1.00277966 84.3778676 1.08779978 84.8467822 1.2343682 85.150351 1.32929864 85.3845475 1.61356837 85.392893 1.99224693 85.400717 2.37353348 85.1670421 2.63485298 84.8681677 2.76629513 84.5745092 2.8951293 84.2266048 2.94572409 83.9016506 2.95146165 83.1916454 2.96271747 82.6674741 2.95270349 81.9570826 2.95146165 81.5422435 2.95073646 80.941217 2.96025747 80.5264009 2.95960459 80.4006932 2.95940674 80.2749891 2.95928558 80.1492903 2.95928558 79.1115112 2.76629513 77.8141058 2.9702391 76.6467743 2.9571992zM95.366744 3.99245908C94.2849543 3.99245908 93.2031646 4.00445578 92.1213748 3.98619993 91.7087925 3.97994078 91.295167 3.91943566 90.8867575 3.8521498 90.4762616 3.78486394 90.1377459 3.4155741 90.0746328 3.02229085 90.0057822 2.59301749 91.5739425 1.58409519 92.1213748 1.58409519 94.5531995 1.58409519 95.251389 2.01352453 96.5663737 2.07611603 98.2981521 2.15854635 96.9999408 2.0206665 98.7665056 2.01352453 99.269324 2.01143815 99.7825742 2.09593667 100.16699 2.44540587 100.32712 2.59093111 100.447609 2.88198158 100.42831 3.09270629 100.409532 3.30186621 100.236363 3.57413923 100.051718 3.67324244 99.7742287 3.82241884 99.4294539 3.90430939 99.1112804 3.91109013 97.8636232 3.93716992 96.6154444 3.92152205 95.366744 3.92152205L95.366744 3.99245908zM110.082996 2.91197684C109.006423 2.91197684 107.929849 2.9171928 106.853275 2.90936886 106.52467 2.90676089 106.189284 2.90415291 105.869545 2.83947502 105.523727 2.76905959 105.318219 2.493657 105.215986 2.16713801 105.134617 1.90999127 105.40689 1.48384749 105.658821 1.34823257 106.269088 1.0201488 106.934122.990939435 107.594463 1.00397933 109.00225 1.0321455 110.410037 1.10256094 111.817824 1.14898297 112.646118 1.17662755 112.618848 1.51290054 113.536148 1.74336352 114.453448 1.9738265 115.600383 2.09270629 115.517612 2.56876679 115.482677 2.7696954 114.453448 2.90989046 114.059121 2.92240876 112.73479 2.96413643 111.408371 2.93805663 110.082996 2.93805663L110.082996 2.91197684zM65.0077287 2.93894335C63.8409188 2.93894335 62.6735874 2.94833207 61.5067775 2.9326842 61.1781722 2.92851143 60.8485236 2.86279036 60.5230478 2.80541482 60.2580771 2.7579496 59.9701562 2.31928751 60.0024952 2.04701449 60.047874 1.66416316 60.3102367 1.46021919 60.6419717 1.3851094 61.0462084 1.29330853 61.4650499 1.23854097 61.8797185 1.2228931 63.0423556 1.17855745 64.2065575 1.15821521 65.3702378 1.13682979 66.3670074 1.11909553 67.3642986 1.1102284 68.3610682 1.10292606 68.863365 1.10031808 69.3792233 1.10344765 69.8006727 1.4096244 69.9811448 1.54054495 70.1094574 1.78308701 70.191348 2.00111406 70.2774113 2.23165941 69.9587162 2.75951439 69.73443 2.8069796 69.4115622 2.87530866 69.084 2.9577208 68.757481 2.96241516 68.2629148 2.96943321 67.7489824 2.80639143 67.2543174 2.8069796 66.4989893 2.80787772 65.7629061 2.9697175 65.0077287 2.9697175L65.0077287 2.93894335z"/>
  </g>
</svg>
